public/assets/img/google_play.svg

<svg width="135" height="40" viewBox="0 0 135 40" fill="none" xmlns="http://www.w3.org/2000/svg">
<g id="google_play">
<g id="surface">
<rect width="135" height="40" rx="12" fill="#090D14"/>
<rect x="0.5" y="0.5" width="134" height="39" rx="11.5" stroke="#E0E0FF" stroke-opacity="0.24"/>
</g>
<path id="shape" fill-rule="evenodd" clip-rule="evenodd" d="M106.936 29.9999H108.802V17.4989H106.936V29.9999ZM123.743 22.0019L121.604 27.4219H121.54L119.32 22.0019H117.31L120.639 29.5769L118.741 33.7909H120.688L125.818 22.0019H123.743ZM113.161 28.5799C112.549 28.5799 111.697 28.2749 111.697 27.5189C111.697 26.5539 112.759 26.1839 113.675 26.1839C114.496 26.1839 114.881 26.3609 115.38 26.6019C115.235 27.7599 114.238 28.5799 113.161 28.5799ZM113.386 21.7289C112.035 21.7289 110.636 22.3239 110.057 23.6429L111.713 24.3339C112.067 23.6429 112.726 23.4169 113.418 23.4169C114.383 23.4169 115.364 23.9959 115.38 25.0259V25.1539C115.042 24.9609 114.319 24.6719 113.434 24.6719C111.649 24.6719 109.831 25.6529 109.831 27.4859C109.831 29.1589 111.295 30.2369 112.935 30.2369C114.19 30.2369 114.881 29.6739 115.316 29.0139H115.38V29.9789H117.181V25.1869C117.181 22.9669 115.525 21.7289 113.386 21.7289ZM101.854 23.5239H99.2V19.2389H101.854C103.249 19.2389 104.041 20.3939 104.041 21.3809C104.041 22.3499 103.249 23.5239 101.854 23.5239ZM101.806 17.4989H97.335V29.9999H99.2V25.2639H101.806C103.874 25.2639 105.907 23.7659 105.907 21.3809C105.907 18.9959 103.874 17.4989 101.806 17.4989ZM77.425 28.5819C76.136 28.5819 75.057 27.5029 75.057 26.0209C75.057 24.5229 76.136 23.4269 77.425 23.4269C78.698 23.4269 79.696 24.5229 79.696 26.0209C79.696 27.5029 78.698 28.5819 77.425 28.5819ZM79.567 22.7019H79.503C79.084 22.2029 78.279 21.7519 77.264 21.7519C75.137 21.7519 73.188 23.6199 73.188 26.0209C73.188 28.4049 75.137 30.2579 77.264 30.2579C78.279 30.2579 79.084 29.8069 79.503 29.2909H79.567V29.9029C79.567 31.5309 78.698 32.4009 77.296 32.4009C76.152 32.4009 75.443 31.5789 75.153 30.8859L73.526 31.5629C73.993 32.6909 75.234 34.0759 77.296 34.0759C79.487 34.0759 81.34 32.7869 81.34 29.6459V22.0089H79.567V22.7019ZM82.629 29.9999H84.498V17.4979H82.629V29.9999ZM87.252 25.8759C87.204 24.2329 88.525 23.3949 89.475 23.3949C90.217 23.3949 90.845 23.7649 91.054 24.2969L87.252 25.8759ZM93.052 24.4579C92.698 23.5079 91.618 21.7519 89.411 21.7519C87.22 21.7519 85.4 23.4749 85.4 26.0049C85.4 28.3889 87.204 30.2579 89.62 30.2579C91.57 30.2579 92.698 29.0659 93.165 28.3729L91.715 27.4059C91.232 28.1149 90.571 28.5819 89.62 28.5819C88.67 28.5819 87.993 28.1469 87.558 27.2939L93.245 24.9419L93.052 24.4579ZM47.744 23.0569V24.8609H52.061C51.932 25.8759 51.594 26.6169 51.079 27.1329C50.45 27.7609 49.467 28.4529 47.744 28.4529C45.086 28.4529 43.007 26.3109 43.007 23.6529C43.007 20.9939 45.086 18.8519 47.744 18.8519C49.178 18.8519 50.225 19.4159 50.998 20.1409L52.271 18.8679C51.191 17.8369 49.758 17.0469 47.744 17.0469C44.103 17.0469 41.042 20.0119 41.042 23.6529C41.042 27.2939 44.103 30.2579 47.744 30.2579C49.709 30.2579 51.191 29.6139 52.351 28.4049C53.543 27.2129 53.914 25.5379 53.914 24.1839C53.914 23.7649 53.882 23.3789 53.817 23.0569H47.744ZM58.823 28.5819C57.534 28.5819 56.422 27.5189 56.422 26.0049C56.422 24.4739 57.534 23.4269 58.823 23.4269C60.111 23.4269 61.223 24.4739 61.223 26.0049C61.223 27.5189 60.111 28.5819 58.823 28.5819ZM58.823 21.7519C56.47 21.7519 54.553 23.5399 54.553 26.0049C54.553 28.4529 56.47 30.2579 58.823 30.2579C61.175 30.2579 63.092 28.4529 63.092 26.0049C63.092 23.5399 61.175 21.7519 58.823 21.7519ZM68.136 28.5819C66.847 28.5819 65.735 27.5189 65.735 26.0049C65.735 24.4739 66.847 23.4269 68.136 23.4269C69.425 23.4269 70.536 24.4739 70.536 26.0049C70.536 27.5189 69.425 28.5819 68.136 28.5819ZM68.136 21.7519C65.784 21.7519 63.867 23.5399 63.867 26.0049C63.867 28.4529 65.784 30.2579 68.136 30.2579C70.488 30.2579 72.405 28.4529 72.405 26.0049C72.405 23.5399 70.488 21.7519 68.136 21.7519Z" fill="white"/>
<path id="shape_2" fill-rule="evenodd" clip-rule="evenodd" d="M46.5473 10.5111L46.648 10.5111C46.6451 10.5449 46.6416 10.5783 46.6376 10.6111H46.5365C46.5406 10.5783 46.5442 10.545 46.5473 10.5111ZM44.369 10.6111H46.5365C46.4801 11.0608 46.3243 11.4049 46.074 11.6561C45.644 12.0841 45.117 12.2961 44.469 12.2971C43.861 12.2961 43.345 12.0861 42.9 11.6591C42.459 11.2321 42.24 10.6881 42.239 10.0001C42.24 9.31212 42.459 8.76812 42.9 8.34112C43.345 7.91412 43.861 7.70412 44.469 7.70412C45.146 7.70512 45.656 7.92912 46.035 8.38012L46.105 8.46312L46.71 7.85812L46.775 7.79412L46.716 7.72312C46.47 7.43012 46.142 7.19812 45.74 7.02512C45.337 6.85312 44.912 6.76612 44.469 6.76612C43.58 6.76512 42.813 7.07712 42.191 7.69612C41.566 8.31312 41.251 9.08912 41.252 10.0001C41.251 10.9111 41.566 11.6871 42.191 12.3051C42.813 12.9231 43.58 13.2351 44.469 13.2341C45.395 13.2351 46.163 12.9271 46.746 12.3151C47.2626 11.7973 47.519 11.099 47.519 10.2431C47.519 10.0911 47.504 9.93512 47.475 9.77312L47.46 9.69112H44.369V10.6111ZM46.746 12.3151L46.744 12.3171L46.673 12.2461L46.746 12.3151ZM46.1825 8.24458L46.112 8.31512C46.0904 8.28942 46.0684 8.26443 46.046 8.24013L46.041 8.24512L46.112 8.31512L46.188 8.25112L46.1825 8.24458ZM52.128 6.90012V7.73712V7.83712H49.395V9.54012H51.859V10.4601H49.395V12.1631H52.128V13.1001H48.425V6.90012H52.128ZM55.379 7.83712V13.0001V13.1001H54.407V7.83712H52.731V6.90012H57.055V7.83712H55.379ZM60.809 13.1001H59.938H59.838V6.90012H60.809V13.1001ZM64.228 7.83712V13.0001V13.1001H63.257V7.83712H61.581V6.90012H65.904V7.83712H64.228ZM69.7792 11.7224L69.779 11.7221L69.85 11.6521L69.8505 11.6526L69.7792 11.7224ZM69.8505 11.6526L69.851 11.6521C69.426 11.2211 69.214 10.6771 69.213 10.0001C69.214 9.32312 69.426 8.77912 69.851 8.34812H69.85C70.279 7.91612 70.79 7.70512 71.409 7.70412C72.029 7.70512 72.541 7.91612 72.968 8.34812C73.393 8.78012 73.605 9.32312 73.606 10.0001C73.605 10.6771 73.393 11.2201 72.968 11.6521C72.541 12.0841 72.029 12.2961 71.409 12.2971C70.7902 12.2951 70.2794 12.0843 69.8505 11.6526ZM73.609 12.2251L73.681 12.2941C73.075 12.9201 72.309 13.2351 71.409 13.2341C70.509 13.2351 69.744 12.9201 69.138 12.2941C68.531 11.6721 68.225 10.8991 68.226 10.0001C68.225 9.10112 68.531 8.32912 69.138 7.70612C69.744 7.08112 70.509 6.76512 71.409 6.76612C72.304 6.76512 73.068 7.08212 73.677 7.71012C74.286 8.33512 74.594 9.10612 74.593 10.0001C74.594 10.8991 74.288 11.6721 73.681 12.2941L73.6095 12.2246L73.609 12.2251ZM79.3597 11.5546L79.3541 11.3576L79.4589 11.5254L79.4602 11.5681H79.43L79.43 11.6671L79.3597 11.5546ZM79.4624 11.6473L79.43 11.6671H79.463L79.463 11.667L79.4624 11.6473ZM76.3161 8.24761L76.3149 8.20612H76.346L76.346 8.10612L76.4153 8.21736L76.4212 8.41606L76.3161 8.24761ZM76.3126 8.12693L76.312 8.10612H76.346L76.3126 8.12693ZM76.4212 8.41606L76.446 9.26112V13.1001H75.575H75.475V6.90012H76.569L79.3541 11.3576L79.33 10.5131V6.90012H80.301V13.1001H79.341L76.4212 8.41606Z" fill="white"/>
<g id="shape_3">
<path id="Fill 21" fill-rule="evenodd" clip-rule="evenodd" d="M10.51 32.3903L10.435 32.3183C10.145 32.0103 9.97299 31.5333 9.97299 30.9133V31.0593V8.94333C9.97299 8.94133 9.97299 8.94033 9.97299 8.93833C9.97299 8.94033 9.97299 8.94233 9.97299 8.94333V9.09033C9.97299 8.41933 10.173 7.91433 10.509 7.61133L22.898 20.0013L10.51 32.3903ZM9.97299 8.93733C9.97299 8.88233 9.97399 8.82833 9.97699 8.77533C9.97399 8.82833 9.97299 8.88233 9.97299 8.93733Z" fill="url(#paint0_linear_364_1021)"/>
<path id="Fill 24" fill-rule="evenodd" clip-rule="evenodd" d="M27.028 24.2781L27.122 24.2251L32.015 21.4451C32.481 21.1801 32.792 20.8581 32.947 20.5181C32.792 20.8581 32.482 21.1801 32.015 21.4451L27.122 24.2251L27.028 24.2781ZM27.029 24.1321L22.898 20.0011L27.029 15.8701L32.015 18.7031C32.648 19.0631 33.004 19.5271 33.063 20.0001C33.063 20.0011 33.063 20.0011 33.063 20.0021C33.004 20.4751 32.648 20.9391 32.015 21.2991L27.029 24.1321Z" fill="url(#paint1_linear_364_1021)"/>
<path id="Fill 27" fill-rule="evenodd" clip-rule="evenodd" d="M11.393 32.861C11.047 32.861 10.745 32.749 10.509 32.536H10.51C10.745 32.748 11.048 32.861 11.394 32.861C11.424 32.861 11.454 32.861 11.485 32.859C11.454 32.861 11.423 32.861 11.393 32.861ZM11.393 32.715C11.047 32.715 10.745 32.602 10.51 32.39L22.898 20.001L27.029 24.132L12.514 32.379C12.112 32.607 11.732 32.715 11.393 32.715Z" fill="url(#paint2_linear_364_1021)"/>
<path id="Clip 31" fill-rule="evenodd" clip-rule="evenodd" d="M22.898 20.0011L10.509 7.61111C10.744 7.39911 11.046 7.28711 11.392 7.28711C11.73 7.28711 12.111 7.39511 12.514 7.62311L27.029 15.8701L22.898 20.0011ZM27.122 15.7771L12.514 7.47711C12.112 7.24911 11.73 7.14111 11.392 7.14111C11.39 7.14111 11.389 7.14111 11.387 7.14111C11.389 7.14111 11.391 7.14111 11.393 7.14111C11.731 7.14111 12.112 7.24811 12.514 7.47711L27.122 15.7771Z" fill="url(#paint3_linear_364_1021)"/>
<mask id="mask0_364_1021" style="mask-type:alpha" maskUnits="userSpaceOnUse" x="10" y="7" width="18" height="14">
<path id="Clip 31_2" fill-rule="evenodd" clip-rule="evenodd" d="M22.898 20.0011L10.509 7.61111C10.744 7.39911 11.046 7.28711 11.392 7.28711C11.73 7.28711 12.111 7.39511 12.514 7.62311L27.029 15.8701L22.898 20.0011ZM27.122 15.7771L12.514 7.47711C12.112 7.24911 11.73 7.14111 11.392 7.14111C11.39 7.14111 11.389 7.14111 11.387 7.14111C11.389 7.14111 11.391 7.14111 11.393 7.14111C11.731 7.14111 12.112 7.24811 12.514 7.47711L27.122 15.7771Z" fill="white"/>
</mask>
<g mask="url(#mask0_364_1021)">
</g>
</g>
</g>
<defs>
<linearGradient id="paint0_linear_364_1021" x1="13.5375" y1="0.396365" x2="-3.60735" y2="11.5902" gradientUnits="userSpaceOnUse">
<stop stop-color="#00C2FF"/>
<stop offset="1" stop-color="#00E3FF"/>
</linearGradient>
<linearGradient id="paint1_linear_364_1021" x1="22.898" y1="24.8559" x2="34.4599" y2="24.8559" gradientUnits="userSpaceOnUse">
<stop stop-color="#FFBB00"/>
<stop offset="1" stop-color="#F3D830"/>
</linearGradient>
<linearGradient id="paint2_linear_364_1021" x1="10.2182" y1="13.4738" x2="-5.90183" y2="40.183" gradientUnits="userSpaceOnUse">
<stop stop-color="#FF3944"/>
<stop offset="1" stop-color="#C31161"/>
</linearGradient>
<linearGradient id="paint3_linear_364_1021" x1="2.31873" y1="9.64706" x2="10.4741" y2="26.5736" gradientUnits="userSpaceOnUse">
<stop stop-color="#0CDD75"/>
<stop offset="1" stop-color="#00F076"/>
</linearGradient>
</defs>
</svg>

<svg width="135" height="40" fill="none" xmlns="http://www.w3.org/2000/svg"><rect width="135" height="40" rx="12" fill="#090D14"/><rect x=".5" y=".5" width="134" height="39" rx="11.5" stroke="#E0E0FF" stroke-opacity=".24"/><path fill-rule="evenodd" clip-rule="evenodd" d="M106.936 30h1.866V17.499h-1.866v12.5Zm16.807-7.998-2.139 5.42h-.064l-2.22-5.42h-2.01l3.329 7.575-1.898 4.214h1.947l5.13-11.79h-2.075Zm-10.582 6.578c-.612 0-1.464-.305-1.464-1.061 0-.965 1.062-1.335 1.978-1.335.821 0 1.206.177 1.705.418a2.262 2.262 0 0 1-2.219 1.978Zm.225-6.851c-1.351 0-2.75.595-3.329 1.914l1.656.69c.354-.69 1.013-.916 1.705-.916.965 0 1.946.579 1.962 1.609v.128c-.338-.193-1.061-.482-1.946-.482-1.785 0-3.603.98-3.603 2.814 0 1.673 1.464 2.75 3.104 2.75 1.255 0 1.946-.562 2.381-1.222h.064v.965h1.801v-4.792c0-2.22-1.656-3.458-3.795-3.458Zm-11.532 1.795H99.2v-4.285h2.654c1.395 0 2.187 1.155 2.187 2.142 0 .969-.792 2.143-2.187 2.143Zm-.048-6.025h-4.471v12.5H99.2v-4.735h2.606c2.068 0 4.101-1.498 4.101-3.883s-2.033-3.882-4.101-3.882ZM77.425 28.582c-1.289 0-2.368-1.08-2.368-2.561 0-1.498 1.079-2.594 2.368-2.594 1.273 0 2.271 1.096 2.271 2.594 0 1.482-.998 2.56-2.271 2.56Zm2.142-5.88h-.064c-.419-.5-1.224-.95-2.239-.95-2.127 0-4.076 1.868-4.076 4.269 0 2.384 1.949 4.237 4.076 4.237 1.015 0 1.82-.451 2.239-.967h.064v.612c0 1.628-.869 2.498-2.271 2.498-1.144 0-1.853-.822-2.143-1.515l-1.627.677c.467 1.128 1.708 2.513 3.77 2.513 2.191 0 4.044-1.29 4.044-4.43v-7.637h-1.773v.693ZM82.629 30h1.869V17.498h-1.869V30Zm4.623-4.124c-.048-1.643 1.273-2.481 2.223-2.481.742 0 1.37.37 1.579.902l-3.802 1.579Zm5.8-1.418c-.354-.95-1.434-2.706-3.641-2.706-2.191 0-4.011 1.723-4.011 4.253 0 2.384 1.804 4.253 4.22 4.253 1.95 0 3.078-1.192 3.545-1.885l-1.45-.967c-.483.709-1.144 1.176-2.095 1.176-.95 0-1.627-.435-2.062-1.288l5.687-2.352-.193-.484Zm-45.308-1.401v1.804h4.317c-.129 1.015-.467 1.756-.982 2.272-.629.628-1.612 1.32-3.335 1.32-2.658 0-4.737-2.142-4.737-4.8 0-2.66 2.079-4.801 4.737-4.801 1.434 0 2.481.564 3.254 1.289l1.273-1.273c-1.08-1.031-2.513-1.821-4.527-1.821-3.641 0-6.702 2.965-6.702 6.606 0 3.64 3.061 6.605 6.702 6.605 1.965 0 3.447-.644 4.607-1.853 1.192-1.192 1.563-2.867 1.563-4.221 0-.42-.032-.805-.097-1.127h-6.073Zm11.079 5.525c-1.289 0-2.401-1.063-2.401-2.577 0-1.531 1.112-2.578 2.401-2.578 1.288 0 2.4 1.047 2.4 2.578 0 1.514-1.112 2.577-2.4 2.577Zm0-6.83c-2.353 0-4.27 1.788-4.27 4.253 0 2.448 1.917 4.253 4.27 4.253 2.352 0 4.269-1.805 4.269-4.253 0-2.465-1.917-4.253-4.269-4.253Zm9.313 6.83c-1.289 0-2.401-1.063-2.401-2.577 0-1.531 1.112-2.578 2.401-2.578 1.289 0 2.4 1.047 2.4 2.578 0 1.514-1.111 2.577-2.4 2.577Zm0-6.83c-2.352 0-4.269 1.788-4.269 4.253 0 2.448 1.917 4.253 4.269 4.253 2.352 0 4.269-1.805 4.269-4.253 0-2.465-1.917-4.253-4.269-4.253ZM46.547 10.511h.101a2.814 2.814 0 0 1-.01.1h-.102c.005-.033.008-.066.011-.1Zm-2.178.1h2.167c-.056.45-.212.794-.462 1.045-.43.428-.957.64-1.605.641a2.182 2.182 0 0 1-1.569-.638c-.441-.427-.66-.97-.661-1.659.001-.688.22-1.232.661-1.659a2.177 2.177 0 0 1 1.569-.637c.677.001 1.187.225 1.566.676l.07.083.605-.605.065-.064-.059-.07a2.58 2.58 0 0 0-.976-.699 3.21 3.21 0 0 0-1.271-.259c-.889 0-1.656.311-2.278.93-.625.617-.94 1.393-.939 2.304-.001.911.314 1.687.939 2.305.622.618 1.389.93 2.278.93.926 0 1.694-.308 2.277-.92.517-.518.773-1.216.773-2.072 0-.152-.015-.308-.044-.47l-.015-.082h-3.091v.92Zm2.377 1.704-.002.002-.071-.07.073.068Zm-.564-4.07-.07.07a2.18 2.18 0 0 0-.066-.075l-.005.005.071.07.076-.064-.006-.006ZM52.128 6.9V7.837h-2.733V9.54h2.464v.92h-2.464v1.703h2.733v.937h-3.703V6.9h3.703Zm3.251.937V13.1h-.972V7.837h-1.676V6.9h4.324v.937h-1.676Zm5.43 5.263h-.971V6.9h.971v6.2Zm3.419-5.263V13.1h-.971V7.837h-1.676V6.9h4.323v.937h-1.676Zm5.551 3.885.071-.07-.07.07Zm.072-.07c-.425-.43-.637-.975-.638-1.652.001-.677.213-1.22.638-1.652h-.001c.429-.432.94-.643 1.559-.644.62.001 1.132.212 1.559.644.425.432.637.975.638 1.652-.001.677-.213 1.22-.638 1.652a2.098 2.098 0 0 1-1.559.645 2.107 2.107 0 0 1-1.559-.644Zm3.758.573.072.07c-.606.625-1.372.94-2.272.94-.9 0-1.665-.315-2.271-.94-.607-.623-.913-1.396-.912-2.295-.001-.899.305-1.67.912-2.294.606-.625 1.371-.94 2.271-.94.895 0 1.659.316 2.268.944.609.625.917 1.396.916 2.29.001.9-.305 1.672-.912 2.294l-.072-.07v.001Zm5.75-.67-.005-.197.105.167.001.043h-.03v.1l-.07-.113Zm.103.092-.032.02h.033v-.02Zm-3.146-3.4-.001-.04h.031v-.1l.07.11.005.2-.105-.17Zm-.003-.12-.001-.02h.034l-.033.02Zm.108.29.025.844v3.84h-.971V6.9h1.094l2.785 4.457-.024-.845V6.9h.971v6.2h-.96l-2.92-4.684Z" fill="#fff"/><path fill-rule="evenodd" clip-rule="evenodd" d="m10.51 32.39-.075-.072c-.29-.308-.462-.785-.462-1.405v.146V8.938v.152c0-.67.2-1.176.536-1.479l12.389 12.39-12.388 12.39ZM9.973 8.937Z" fill="url(#a)"/><path fill-rule="evenodd" clip-rule="evenodd" d="m27.028 24.278.094-.053 4.893-2.78c.466-.265.777-.587.932-.927-.155.34-.465.662-.932.927l-4.893 2.78-.094.053Zm.001-.146-4.131-4.13 4.131-4.132 4.986 2.833c.633.36.989.824 1.048 1.297v.002c-.059.473-.415.937-1.048 1.297l-4.986 2.833Z" fill="url(#b)"/><path fill-rule="evenodd" clip-rule="evenodd" d="M11.393 32.861c-.346 0-.648-.112-.884-.325h.001c.235.212.538.325.884.325.03 0 .06 0 .091-.002-.031.002-.062.002-.092.002Zm0-.146c-.346 0-.648-.113-.883-.325l12.388-12.389 4.131 4.131-14.515 8.247c-.402.228-.782.336-1.121.336Z" fill="url(#c)"/><path fill-rule="evenodd" clip-rule="evenodd" d="M22.898 20.001 10.509 7.611c.235-.212.537-.324.883-.324.338 0 .719.108 1.122.336l14.515 8.247-4.131 4.131Zm4.224-4.224-14.608-8.3c-.402-.228-.784-.336-1.122-.336h-.005.006c.338 0 .719.107 1.121.336l14.608 8.3Z" fill="url(#d)"/><mask id="e" style="mask-type:alpha" maskUnits="userSpaceOnUse" x="10" y="7" width="18" height="14"><path fill-rule="evenodd" clip-rule="evenodd" d="M22.898 20.001 10.509 7.611c.235-.212.537-.324.883-.324.338 0 .719.108 1.122.336l14.515 8.247-4.131 4.131Zm4.224-4.224-14.608-8.3c-.402-.228-.784-.336-1.122-.336h-.005.006c.338 0 .719.107 1.121.336l14.608 8.3Z" fill="#fff"/></mask><defs><linearGradient id="a" x1="13.537" y1=".396" x2="-3.607" y2="11.59" gradientUnits="userSpaceOnUse"><stop stop-color="#00C2FF"/><stop offset="1" stop-color="#00E3FF"/></linearGradient><linearGradient id="b" x1="22.898" y1="24.856" x2="34.46" y2="24.856" gradientUnits="userSpaceOnUse"><stop stop-color="#FB0"/><stop offset="1" stop-color="#F3D830"/></linearGradient><linearGradient id="c" x1="10.218" y1="13.474" x2="-5.902" y2="40.183" gradientUnits="userSpaceOnUse"><stop stop-color="#FF3944"/><stop offset="1" stop-color="#C31161"/></linearGradient><linearGradient id="d" x1="2.319" y1="9.647" x2="10.474" y2="26.574" gradientUnits="userSpaceOnUse"><stop stop-color="#0CDD75"/><stop offset="1" stop-color="#00F076"/></linearGradient></defs></svg>
